public/images/file-maker/feature1.svg

<svg width="64" height="64" viewBox="0 0 64 64" fill="none" xmlns="http://www.w3.org/2000/svg">
<g clip-path="url(#clip0)">
<path d="M32.0003 26.6667C25.579 26.6667 18.667 24.9973 18.667 21.3333C18.667 17.6693 25.579 16 32.0003 16C38.4217 16 45.3337 17.6693 45.3337 21.3333C45.3337 24.9973 38.4217 26.6667 32.0003 26.6667ZM32.0003 18.6667C25.0003 18.6667 21.3337 20.648 21.3337 21.3333C21.3337 22.0187 25.0003 24 32.0003 24C39.0003 24 42.667 22.0187 42.667 21.3333C42.667 20.648 39.0003 18.6667 32.0003 18.6667Z" fill="#FF6B00"/>
<path d="M32.0003 42.6667C25.579 42.6667 18.667 40.9973 18.667 37.3333V21.3333C18.667 20.5973 19.2643 20 20.0003 20C20.7363 20 21.3337 20.5973 21.3337 21.3333V37.3333C21.3337 38.0187 25.0003 40 32.0003 40C39.0003 40 42.667 38.0187 42.667 37.3333V21.3333C42.667 20.5973 43.2643 20 44.0003 20C44.7363 20 45.3337 20.5973 45.3337 21.3333V37.3333C45.3337 40.9973 38.4217 42.6667 32.0003 42.6667Z" fill="#FF6B00"/>
<path d="M32.0003 34.6667C25.579 34.6667 18.667 32.9973 18.667 29.3333C18.667 28.5973 19.2643 28 20.0003 28C20.7363 28 21.3337 28.5973 21.3337 29.3333C21.3337 30.0187 25.0003 32 32.0003 32C39.0003 32 42.667 30.0187 42.667 29.3333C42.667 28.5973 43.2643 28 44.0003 28C44.7363 28 45.3337 28.5973 45.3337 29.3333C45.3337 32.9973 38.4217 34.6667 32.0003 34.6667Z" fill="#FF6B00"/>
<path d="M32.0003 58.6667C31.2643 58.6667 30.667 58.0693 30.667 57.3333C30.667 56.5973 31.2643 56 32.0003 56C46.7043 56 58.667 44.0373 58.667 29.3333C58.667 28.5973 59.2643 28 60.0003 28C60.7363 28 61.3337 28.5973 61.3337 29.3333C61.3337 45.5067 48.1737 58.6667 32.0003 58.6667Z" fill="#7F8284"/>
<path d="M58.4268 21.4667C57.8748 21.4667 57.3574 21.12 57.1654 20.5707C53.4588 9.86133 43.3441 2.66667 32.0001 2.66667C25.9308 2.66667 20.2454 4.65867 15.5548 8.424C14.9788 8.88267 14.1414 8.79467 13.6801 8.22133C13.2188 7.64533 13.3121 6.808 13.8854 6.34667C19.0534 2.19467 25.3174 0 32.0001 0C44.4801 0 55.6081 7.91733 59.6881 19.696C59.9281 20.3947 59.5601 21.152 58.8641 21.3947C58.7201 21.4427 58.5708 21.4667 58.4268 21.4667Z" fill="#7F8284"/>
<path d="M22.667 57.04C22.5203 57.04 22.371 57.016 22.2243 56.9653C10.5283 52.864 2.66699 41.76 2.66699 29.3333C2.66699 23.4133 4.42699 17.7306 7.75499 12.8986C8.17099 12.288 9.00033 12.1413 9.60833 12.5546C10.2163 12.9733 10.3683 13.8026 9.94966 14.408C6.93099 18.7973 5.33366 23.9573 5.33366 29.3333C5.33366 40.6293 12.4777 50.7226 23.1097 54.448C23.803 54.6906 24.1683 55.4507 23.9257 56.1467C23.7337 56.696 23.219 57.04 22.667 57.04Z" fill="#7F8284"/>
<path d="M36.0003 64C35.659 64 35.3177 63.8693 35.0563 63.6107L29.723 58.2773C29.203 57.7573 29.203 56.912 29.723 56.392L35.0563 51.0587C35.5763 50.5387 36.4217 50.5387 36.9417 51.0587C37.4617 51.5787 37.4617 52.424 36.9417 52.944L32.5523 57.3333L36.9417 61.7227C37.4617 62.2427 37.4617 63.088 36.9417 63.608C36.683 63.8693 36.3417 64 36.0003 64Z" fill="#7F8284"/>
<path d="M11.1306 21.3333C10.5413 21.3333 10.0026 20.9413 9.84263 20.3467L8.1173 13.9067L1.6773 15.632C0.970631 15.8107 0.234631 15.4 0.0452975 14.688C-0.144036 13.976 0.277298 13.248 0.989298 13.056L8.7173 10.9867C9.43197 10.808 10.16 11.2187 10.3493 11.928L12.4186 19.6533C12.6106 20.368 12.1866 21.096 11.4773 21.288C11.36 21.3173 11.2453 21.3333 11.1306 21.3333Z" fill="#7F8284"/>
<path d="M58.6666 22.928C58.44 22.928 58.2106 22.872 58 22.7493L51.072 18.7493C50.4346 18.3813 50.216 17.568 50.584 16.928C50.952 16.288 51.768 16.0693 52.4053 16.44L58.1786 19.7733L61.512 14C61.88 13.3626 62.6933 13.1413 63.3333 13.512C63.9706 13.88 64.1893 14.6933 63.8213 15.3333L59.8213 22.2613C59.5733 22.688 59.1253 22.928 58.6666 22.928Z" fill="#7F8284"/>
</g>
<defs>
<clipPath id="clip0">
<rect width="64" height="64" fill="white"/>
</clipPath>
</defs>
</svg>

<svg xmlns="http://www.w3.org/2000/svg" width="64" height="64" fill="none" xmlns:v="https://vecta.io/nano"><g clip-path="url(#A)"><g fill="#ff6b00"><path d="M32 26.667c-6.421 0-13.333-1.669-13.333-5.333S25.579 16 32 16s13.333 1.669 13.333 5.333S38.422 26.667 32 26.667zm0-8c-7 0-10.667 1.981-10.667 2.667S25 24 32 24s10.667-1.981 10.667-2.667S39 18.667 32 18.667z"/><path d="M32 42.667c-6.421 0-13.333-1.669-13.333-5.333v-16c0-.736.597-1.333 1.333-1.333s1.333.597 1.333 1.333v16C21.334 38.019 25 40 32 40s10.667-1.981 10.667-2.667v-16c0-.736.597-1.333 1.333-1.333s1.333.597 1.333 1.333v16c0 3.664-6.912 5.333-13.333 5.333z"/><path d="M32 34.667c-6.421 0-13.333-1.669-13.333-5.333 0-.736.597-1.333 1.333-1.333s1.333.597 1.333 1.333C21.334 30.019 25 32 32 32s10.667-1.981 10.667-2.667c0-.736.597-1.333 1.333-1.333s1.333.597 1.333 1.333c0 3.664-6.912 5.333-13.333 5.333z"/></g><g fill="#7f8284"><path d="M32 58.667c-.736 0-1.333-.597-1.333-1.333S31.264 56 32 56c14.704 0 26.667-11.963 26.667-26.667 0-.736.597-1.333 1.333-1.333s1.333.597 1.333 1.333c0 16.173-13.16 29.333-29.333 29.333zm26.427-37.2a1.34 1.34 0 0 1-1.261-.896A26.64 26.64 0 0 0 32 2.667c-6.069 0-11.755 1.992-16.445 5.757-.576.459-1.413.371-1.875-.203s-.368-1.413.205-1.875C19.053 2.195 25.317 0 32 0c12.48 0 23.608 7.917 27.688 19.696.24.699-.128 1.456-.824 1.699a1.39 1.39 0 0 1-.437.072z"/><path d="M22.667 57.04c-.147 0-.296-.024-.443-.075C10.528 52.864 2.667 41.76 2.667 29.333c0-5.92 1.76-11.603 5.088-16.435.416-.611 1.245-.757 1.853-.344a1.33 1.33 0 0 1 .341 1.853c-3.019 4.389-4.616 9.549-4.616 14.925 0 11.296 7.144 21.389 17.776 25.115.693.243 1.059 1.003.816 1.699-.192.549-.707.893-1.259.893zM36 64a1.34 1.34 0 0 1-.944-.389l-5.333-5.333c-.52-.52-.52-1.365 0-1.885l5.333-5.333c.52-.52 1.365-.52 1.885 0s.52 1.365 0 1.885l-4.389 4.389 4.389 4.389c.52.52.52 1.365 0 1.885A1.32 1.32 0 0 1 36 64z"/><path d="M11.131 21.333c-.589 0-1.128-.392-1.288-.987l-1.725-6.44-6.44 1.725c-.707.179-1.443-.232-1.632-.944s.232-1.44.944-1.632l7.728-2.069a1.34 1.34 0 0 1 1.632.941l2.069 7.725c.192.715-.232 1.443-.941 1.635-.117.029-.232.045-.347.045zm47.536 1.595c-.227 0-.456-.056-.667-.179l-6.928-4c-.637-.368-.856-1.181-.488-1.821a1.33 1.33 0 0 1 1.821-.488l5.773 3.333L61.512 14a1.33 1.33 0 0 1 1.821-.488c.637.368.856 1.181.488 1.821l-4 6.928c-.248.427-.696.667-1.155.667z"/></g></g><defs><clipPath id="A"><path fill="#fff" d="M0 0h64v64H0z"/></clipPath></defs></svg>
